img/calendar.svg

<svg width="20" height="20" viewBox="0 0 20 20" fill="none" xmlns="http://www.w3.org/2000/svg">
    <path d="M13.3333 1.66666V4.99999M6.66667 1.66666V4.99999M2.5 8.33332H17.5M4.16667 3.33332H15.8333C16.7538 3.33332 17.5 4.07952 17.5 4.99999V16.6667C17.5 17.5871 16.7538 18.3333 15.8333 18.3333H4.16667C3.24619 18.3333 2.5 17.5871 2.5 16.6667V4.99999C2.5 4.07952 3.24619 3.33332 4.16667 3.33332Z" stroke="#2563EB" stroke-width="1.66667" stroke-linecap="round" stroke-linejoin="round"/>
</svg>

<svg width="20" height="20" fill="none" xmlns="http://www.w3.org/2000/svg"><path d="M13.333 1.667V5M6.667 1.667V5M2.5 8.333h15m-13.333-5h11.666c.92 0 1.667.747 1.667 1.667v11.667c0 .92-.746 1.666-1.667 1.666H4.167c-.92 0-1.667-.746-1.667-1.666V5c0-.92.746-1.667 1.667-1.667z" stroke="#2563EB" stroke-width="1.667" stroke-linecap="round" stroke-linejoin="round"/></svg>
